public/images/flags/CA.svg

<svg width="21" height="15" viewBox="0 0 21 15" fill="none" xmlns="http://www.w3.org/2000/svg">
<path d="M5 0H16V15H5V0Z" fill="#F6F9FC"/>
<path opacity="0.1" d="M16 1H5V0H16V1ZM5 14H16V15H5V14Z" fill="#E25950"/>
<path d="M10.045 10.97L10.042 8.996L8.64301 8.988L8.82001 8.169L7 7.892L7.647 6.695L7.06699 5.11L8.66 5.744L9.13101 3.926L9.82901 4.282L10.497 2.999L11.257 4.263L11.878 3.977L12.177 5.734L13.95 5.177L13.405 6.647L14 7.882L12.24 8.169L12.401 8.98L10.959 8.966L10.967 10.951L10.045 10.97ZM6 15H2C1.46957 15 0.960858 14.7893 0.585785 14.4142C0.210712 14.0391 0 13.5304 0 13V2C0 1.46957 0.210712 0.96086 0.585785 0.585787C0.960858 0.210714 1.46957 0 2 0H6V15ZM19 15H15V0H19C19.5304 0 20.0391 0.210714 20.4142 0.585787C20.7893 0.96086 21 1.46957 21 2V13C21 13.5304 20.7893 14.0391 20.4142 14.4142C20.0391 14.7893 19.5304 15 19 15Z" fill="#E25950"/>
</svg>

<svg width="21" height="15" fill="none" xmlns="http://www.w3.org/2000/svg"><path d="M5 0h11v15H5V0z" fill="#F6F9FC"/><path opacity=".1" d="M16 1H5V0h11v1zM5 14h11v1H5v-1z" fill="#E25950"/><path d="M10.045 10.97l-.003-1.974-1.399-.008.177-.819L7 7.892l.647-1.197-.58-1.585 1.593.634.471-1.818.698.356.668-1.283.76 1.264.621-.286.299 1.757 1.773-.557-.545 1.47L14 7.882l-1.76.287.161.811-1.442-.014.008 1.985-.922.019zM6 15H2a2 2 0 0 1-2-2V2a2 2 0 0 1 2-2h4v15zm13 0h-4V0h4a2 2 0 0 1 2 2v11a2 2 0 0 1-2 2z" fill="#E25950"/></svg>
